X: 776
T: Gamdan Âzâde Hemân
C: Rifat Bey (Sermüezzin, Miralay)
O: Turkey
F: http://compmusic.upf.edu/node/140
N: rast--sarki--curcuna--gamdan_azade--rifat_bey
N: makam= rast
N: form= sarki
N: usul= curcuna = 10/8
M: 10/8
L: 1/16
K: C _1/4B ^f  
Q: 1/4=180
%%MIDI tuningsystem comma53
D4 E2F2 G2A2 B2G2 A2B2  | c2d2 =f2e2 d2c2 B2A4B2  | \
w:  ARANAĞME  |   | 
c4 d4 c2d2 c2B2 A2G2  | 
w:   | 
a2g2 f2e2 d2d2 c2d4z2  | g4 =f2e2 d2f4e2 d2c2  | \
w:   |   | 
e4 d2c2 B2d4c2 B2A2  | 
w:   | 
c2B2 A2G2 A2F2 E2D2 E2F2  | G2A2 B2c2 d2B2 A2G4z2  | \
w:   |   | 
D4 E2F2 G2A2 B2G2 A2B2  | 
w:  ARANAĞME  | 
c2d2 =f2e2 d2c2 B2A4B2  | c4 d4 c2d2 c2B2 A2G2  | \
w:   |   | 
a2g2 f2e2 d2d2 c2d4z2  | 
w:   | 
g4 =f2e2 d2f4e2 d2c2  | e4 d2c2 B2d4c2 B2A2  | \
w:   |   | 
c2B2 A2G2 A2F2 E2D2 E2F2  | 
w:   | 
G2A2 B2c2 d2B2 A2G4z2  | G6G4G8-G2  | \
w:   |  Gam dan  â  | 
A4 B2c4c3BB4A2  | A4 B4 A2(3A2G2A2B4A2  | 
w:  zâ *  de  he *  man   |  dün  | 
A4 B2A2 G2G2 F2G6  | z4 c2d4d2 c2B3AG2  | \
w:  ya *  da  *  bir   |  mey  | 
d4 =f2e2 d2d2 c2d4z2  | 
w:  ha *  ne *  dir    | 
z4 e2d2 c2B2 A2G4z2  | G6G4G8-G2  | A4 B2c4c3BB4A2  | \
w:  SAZ  |  Gam dan  â  |  zâ *  de  he *  man   | 
A4 B4 A2(3A2G2A2B4A2  | 
w:  dün  | 
A4 B2A2 G2G2 F2G6  | z4 c2d4d2 c2B3AG2  | \
w:  ya *  da  *  bir   |  mey  | 
d4 =f2e2 d2d2 c2d4z2  | 
w:  ha *  ne *  dir    | 
z4 =f2e2 d2e2 c2d4z2  | c6d4e2 =f2g2 e4  | \
w:  SAZ  |  Def_ i  gam   | 
e4 d2d2 e2e2 d2d4z2  | 
w:  et *  mek  *  i *  çin   | 
d2c2 d2e4d2 c2B2 A2B2  | c4 B2B2 A2A8z2  | \
w:  a  |  let_ *  i *  se   | 
d8-d2d2 c2B3AG2  | 
w:  pey  | 
A4 _B2A2 G2G2 F2G6  | d4 =f2e2 d2e2 c2d4z2  | \
w:  mâ *  ne *  dir    |  SAZ  | 
c6d4e2 =f2g2 e4  | 
w:  Def_ i  gam   | 
e4 d2d2 e2e2 d2d4z2  | d2c2 d2e4d2 c2B2 A2B2  | \
w:  et *  mek  *  i *  çin   |  a  | 
c4 B2B2 A2A8z2  | 
w:  let_ *  i *  se   | 
d8-d2d2 c2B3AG2  | A4 _B2A2 G2G2 F2G6  | \
w:  pey  |  mâ *  ne *  dir    | 
d4 _b2a2 g2a2 f2g4z2  | 
w:  SAZ  | 
e6f4g4a6  | _b2a2 g2g2 f2g8z2  | g4 f2e4a4g4f2  | \
w:  Neş_ e_ i  zevk_  |  i  *  *  me *  yi   |  tah  | 
f4 e2e2 d2d8z2  | 
w:  kîr_ *  e *  den   | 
c'8-c'2c'2 b2b3ag2  | a4 _b2a2 g2g2 f2g4z2  | \
w:  dî  |  vâ *  ne *  dir    | 
g4 _b2a2 g2f2 g2a4z2  | 
w:  SAZ  | 
g4 a2a4a8z2  | g4 a2_b4a2 g2g4=f2  | \
w:  Gam  *  ge lir   |  şâ *  di  gi *  der   | 
=f4 g2a4g4f4e2  | g4 =f2f2 _1/4e2e8-e2  | 
w:  çün   |  dil  *  mi *  sa  | 
g8-g2g2 f2_3/4e2 d2c2  | d4 _7/8e2d2 c2c2 B2c4z2  | \
w:  fir  |  ha *  ne *  dir    | 
z4 e2d2 c2d2 B2c4z2  | 
w:  SAZ  | 
c6d4e2 =f2g2 e4  | e4 d2d2 e2e2 d2d4z2  | \
w:  Def_ i  gam   |  et *  mek  *  i *  çin   | 
d2c2 d2e4d2 c2B2 A2B2  | 
w:  a  | 
c4 B2B2 A2A8z2  | d8-d2d2 c2B3AG2  | \
w:  let_ *  i *  se   |  pey  | 
A4 _B2A2 G2G2 F2G6  | G4 e2d2 c2B2 A2G4z2  | 
w:  mâ *  ne *  dir    |  SAZ *  KARAR  | 
|


